assets/mobile-header.svg

<svg width="366" height="56" viewBox="0 0 366 56" fill="none" xmlns="http://www.w3.org/2000/svg">
<path d="M0 10.5C0 4.97715 4.47715 0.5 10 0.5H356C361.523 0.5 366 4.97715 366 10.5V46C366 51.5228 361.523 56 356 56H296.89C292.033 56 287.878 52.5099 287.04 47.7257L285.95 41.5013C285.111 36.7172 280.957 33.2271 276.1 33.2271H183.266H92.2859C87.7622 33.2271 83.8019 36.2639 82.6283 40.6327L80.4894 48.5944C79.3158 52.9632 75.3555 56 70.8319 56H10C4.47715 56 0 51.5228 0 46V10.5Z" fill="#1C1C1C"/>
</svg>

<svg xmlns="http://www.w3.org/2000/svg" width="366" height="56" fill="none"><path fill="#1C1C1C" d="M0 10.5C0 4.977 4.477.5 10 .5h346c5.523 0 10 4.477 10 10V46c0 5.523-4.477 10-10 10h-59.11a10 10 0 0 1-9.85-8.274l-1.09-6.225a10 10 0 0 0-9.85-8.274H92.286a10 10 0 0 0-9.658 7.406l-2.139 7.961A10 10 0 0 1 70.832 56H10C4.477 56 0 51.523 0 46z"/></svg>
